X:1
T:Newcastle (Everett), CM
T:Newcastle (Everett), CM
T:Asa Brooks Everett (1828–1875)
T:Public Domain Courtesy of the Cyber Hymnal™
C:Asa Brooks Everett (1828–1875)
Z:Public Domain
Z:Courtesy of the Cyber Hymnal™
%%score 1 ( 2 3 )
L:1/8
Q:1/4=105
M:2/4
K:C
V:1 treble 
V:2 bass 
V:3 bass 
V:1
 [EG]2 [EG][FA] | [EG]2 [CE]2 | [Gc]2 [FA]2 | [EG]4 | [Gc]2 [Fd][Fd] | [Ec]2 [DB]2 | [Ec]4 | %7
 [Gd]2 [Gd][Gd] | [Ge]2 [Gd]2 | [Gc]2 [FA]2 | [EG]4 | [EG]2 [FA][FA] | [EG]2 [DB]2 | [Ec]4 |] %14
V:2
 [C,C]2 [C,C][C,C] | [C,C]2 [C,G,]2 | [E,C]2 [F,C]2 | [C,C]4 | [E,G,]2 [F,A,][F,A,] | %5
 G,2 [G,,G,]2 | [C,G,]4 | [G,B,]2 [G,B,][G,B,] | C2 [G,B,]2 | [E,C]2 [F,C]2 | [C,C]4 | %11
 [C,C]2 [F,C][F,C] | [G,C]2 [G,,G,]2 | [C,G,]4 |] %14
V:3
 x4 | x4 | x4 | x4 | x4 | G,2 x2 | x4 | x4 | C2 x2 | x4 | x4 | x4 | x4 | x4 |] %14

